src/svgs/retail.svg

<?xml version="1.0" encoding="utf-8"?>
<!-- Generated by IcoMoon.io -->
<!DOCTYPE svg PUBLIC "-//W3C//DTD SVG 1.1//EN" "http://www.w3.org/Graphics/SVG/1.1/DTD/svg11.dtd">
<svg version="1.1" xmlns="http://www.w3.org/2000/svg" xmlns:xlink="http://www.w3.org/1999/xlink" width="32" height="32" viewBox="0 0 32 32">
<path d="M26.133 7.2l1.6 6.867c0 1.2-0.933 2.267-2.6 2.267-1.533 0-2.733-0.733-3-1.8-0.267 1-1.533 1.8-3 1.8-1.533 0-2.733-0.733-3-1.8-0.267 1-1.533 1.8-3 1.8-1.533 0-2.733-0.733-3-1.8-0.267 1-1.533 1.8-3 1.8-1.867 0-2.8-1-2.8-2.267l1.6-6.867h20.2zM26.8 6.333h-21.6l-0.2 0.667-1.6 6.867v0.133c0 1.8 1.4 3.067 3.467 3.067 1.2 0 2.267-0.4 3-1.133 0.733 0.667 1.8 1.133 3 1.133s2.267-0.4 3-1.133c0.733 0.667 1.8 1.133 3 1.133s2.267-0.4 3-1.133c0.733 0.667 1.8 1.133 3 1.133 2.067 0 3.467-1.2 3.467-3.067v-0.133l-1.6-6.867v-0.667h0.067zM6.533 16.933h0.867v9.2h-0.867v-9.2zM24.6 16.933h0.867v9.2h-0.867v-9.2zM23.067 22.4h-14.133v-6.4h0.867v5.533h12.4v-5.533h0.867zM3.333 26.133h25.333v0.867h-25.333v-0.867zM10.24 15.732l-0.863-0.082 0.848-8.96 0.863 0.082-0.848 8.96zM15.533 6.733h0.867v8.933h-0.867v-8.933zM21.672 15.741l-0.848-8.96 0.863-0.082 0.848 8.96-0.863 0.082z"></path>
</svg>

<svg xmlns="http://www.w3.org/2000/svg" width="32" height="32" viewBox="0 0 32 32">
    <path d="M26.133 7.2l1.6 6.867c0 1.2-.933 2.267-2.6 2.267-1.533 0-2.733-.733-3-1.8-.267 1-1.533 1.8-3 1.8-1.533 0-2.733-.733-3-1.8-.267 1-1.533 1.8-3 1.8-1.533 0-2.733-.733-3-1.8-.267 1-1.533 1.8-3 1.8-1.867 0-2.8-1-2.8-2.267l1.6-6.867h20.2zm.667-.867H5.2L5 7l-1.6 6.867V14c0 1.8 1.4 3.067 3.467 3.067 1.2 0 2.267-.4 3-1.133.733.667 1.8 1.133 3 1.133s2.267-.4 3-1.133c.733.667 1.8 1.133 3 1.133s2.267-.4 3-1.133c.733.667 1.8 1.133 3 1.133 2.067 0 3.467-1.2 3.467-3.067v-.133L26.734 7v-.667h.067zm-20.267 10.6H7.4v9.2h-.867v-9.2zm18.067 0h.867v9.2H24.6v-9.2zM23.067 22.4H8.934V16h.867v5.533h12.4V16h.867zM3.333 26.133h25.333V27H3.333v-.867zm6.907-10.401l-.863-.082.848-8.96.863.082-.848 8.96zm5.293-8.999h.867v8.933h-.867V6.733zm6.139 9.008l-.848-8.96.863-.082.848 8.96-.863.082z"/>
</svg>
